!!!OTL: Geistliches Wegelied
!!!ARE: Europa, Mitteleuropa, Deutschland
!!!SCT: A0641
!!!YEM: Copyright 1995, estate of Helmut Schaffrath.
**kern
*ICvox
*Ivox
*M4/2
*k[b-e-]
*g:
{2g
=1
2.g
4a
2b-
2cc
=2
1a
2fn
2fn
=3
2g
2g
2a
2a
=4
1d
2r}
{2g
=5
2.g
4a
2b-
2cc
=6
1a
2fn
2fn
=7
2g
2g
2a
2a
=8
1d
2r}
{2dd
=9
2cc
2a
2b-
2g
=10
1a
2r
2g
=11
2.b-
4cc
2dd
2dd
=12
1cc
2a}
{2a
=13
2b-
2b-
2g
2g
=14
1a
2fn
2d
=15
2fn
2g
2a
2a
=16
1.g}
==
!!!AGN: Romanze, Ballade, Lied, religioeses Lied
!! Dresdner Cod. um 1570
!!!ONB: ESAC (Essen Associative Code) Database: ALTDEU
!!!AMT: simple quadruple
!!!AIN: vox
!!!EED: Helmut Schaffrath
!!!EEV: 1.0
*-
